Yaru++/actions/16/lines-connector.svg

<svg viewBox="0 0 22 22" xmlns="http://www.w3.org/2000/svg">
 /&amp;gt;
 <g fill="#808080"><path d="m16 3v3h3v-3zm1 1h1v1h-1zm-14 12v3h3v-3zm1 1h1v1h-1z"/><path d="m13.941406 4-6.4999998 13h-1.4414062v1h.9414062 1.0585938.0585938l6.5000002-13h1.441406v-1h-.941406-1.058594z"/></g></svg>

<svg xmlns="http://www.w3.org/2000/svg" viewBox="0 0 22 22">
 <defs>
  <style id="current-color-scheme" type="text/css">
   .ColorScheme-Text { color:#808080; } .ColorScheme-Highlight { color:#1d99f3; }
  </style>
 </defs>
 /&gt;
 <path fill="#808080" class="ColorScheme-Highlight" d="M 16 3 L 16 6 L 19 6 L 19 3 L 16 3 z M 17 4 L 18 4 L 18 5 L 17 5 L 17 4 z M 3 16 L 3 19 L 6 19 L 6 16 L 3 16 z M 4 17 L 5 17 L 5 18 L 4 18 L 4 17 z"/>
 <path fill="#808080" class="ColorScheme-Text" d="M 13.941406 4 L 7.4414062 17 L 6 17 L 6 18 L 6.9414062 18 L 8 18 L 8.0585938 18 L 14.558594 5 L 16 5 L 16 4 L 15.058594 4 L 14 4 L 13.941406 4 z"/>
</svg>
